X:1
T:Eden of Love, 12.11.12.11.12.12.12.11
T:Eden of Love, 12.11.12.11.12.12.12.11
T:Joseph Funk, 1835
T:Public Domain Courtesy of the Cyber Hymnal™
C:Joseph Funk, 1835
Z:Public Domain
Z:Courtesy of the Cyber Hymnal™
%%score ( 1 2 ) ( 3 4 )
L:1/8
Q:1/4=135
M:4/4
K:Bb
V:1 treble 
V:2 treble 
V:3 bass 
V:4 bass 
V:1
|: D4 | [DG]4 [DG]2 [FA]2 | [DF]4 D2 D2 | [DB]4 [Fc]2 [GB]2 | [Fc]4 [Fd]4- | [Fd]2 z2 | (d2 ^f2) | %7
 [Dg]4 [Df]2 (dc) | [Dd]4 [^Fc]2 [GB]2 | [DG]4 [DF]2 [D^F]2 | !fermata![DG]4 :| [Ac]4 | %12
 [Bd]4 [Gd]2 [G=e]2 | [Af]4 [Bg]2 B2 | [Ac]4 [Gd]2 [G=e]2 | (f2 d2) [Fd]4- | [Fd]2 z2 (d2 f2) | %17
 [Gg]4 [Bf]2 (dc) | [Bd]4 [Ac]2 [GB]2 | [DG]4 [EG]2 [EG]2 | (F3 D) F4- | F2 z2 D4 | %22
 [DG]4 [DG]2 [FA]2 | [DF]4 D2 D2 | [FB]4 [^Fc]2 [GB]2 | [Fc]4 [Fd]4- | [Fd]2 z2 (d2 f2) | %27
 [Dg]4 [Df]2 (dc) | [Dd]4 [^Fc]2 [GB]2 | [DG]4 [DF]2 [C^F]2 | !fermata![DG]4 |] %31
V:2
|: D4 | x8 | x4 D2 D2 | x8 | x8 | x4 | D4 | x6 D2 | x8 | x8 | x4 :| x4 | x8 | x6 B2 | x8 | F4 x4 | %16
 x4 F4 | x6 B2 | x8 | x8 | F3 D F4- | F2 D4 x2 | x8 | x4 D2 D2 | x8 | x8 | x4 D4 | x6 D2 | x8 | %29
 x8 | x4 |] %31
V:3
|: [D,D]4 | [G,B,]4 [G,B,]2 [F,C]2 | [B,,B,]4 [B,,B,]2 [B,,B,]2 | [B,,D]4 [^F,C]2 [G,D]2 | %4
 [F,F]4 [D,F]4- | [D,F]2 z2 | [F,F]4 | [B,D]4 [B,D]2 [B,F]2 | [G,B,]4 [^F,C]2 [G,D]2 | %9
 [D,D]4 [D,F]2 [D,F]2 | !fermata![G,,D]4 :| [F,C]4 | B,4 B,2 [G,C]2 | [F,D]4 [E,B,]2 [=E,B,]2 | %14
 [F,C]4 [F,B,]2 [=E,C]2 | [F,C]4 [B,F]4- | [B,F]2 z2 [B,F]4 | [G,D]4 [B,D]2 (DC) | %18
 [G,B,]4 [^F,C]2 [G,D]2 | [D,D]4 [E,B,]2 [=E,B,]2 | (C3 D) [F,C]4- | [F,C]2 z2 [D,D]4 | %22
 [G,B,]4 [G,B,]2 [F,C]2 | [B,,B,]4 [B,,B,]2 [B,,B,]2 | [B,,D]4 [^F,C]2 [G,D]2 | [F,F]4 [D,F]4- | %26
 [D,F]2 z2 [F,F]4 | [B,D]4 [B,D]2 [B,F]2 | [G,B,]4 [^F,C]2 [G,D]2 | [D,D]4 [D,F]2 [D,F]2 | %30
 !fermata![G,,G,D]4 |] %31
V:4
|: x4 | x8 | x8 | x8 | x8 | x4 | x4 | x8 | x8 | x8 | x4 :| x4 | B,4 B,2 x2 | x8 | x8 | x8 | x8 | %17
 x6 B,2 | x8 | x8 | F,4 x4 | x8 | x8 | x8 | x8 | x8 | x8 | x8 | x8 | x8 | x4 |] %31

